;FLAVOR:Marlin
;TIME:2392
;Filament used: 1.37479m
;Layer height: 0.2
;MINX:93.117
;MINY:90.519
;MINZ:0.2
;MAXX:126.881
;MAXY:129.481
;MAXZ:7.8
;Generated with Creality Slicer 4.8.2-205
M140 S60
M105
M190 S60
M104 S200
M105
M109 S200
M82 ;absolute extrusion mode

G28 ;Home

G92 E0 ;Reset Extruder
G1 Z2.0 F3000 ;Move Z Axis up
G1 X10.1 Y20 Z0.28 F5000.0 ;Move to start position
G1 X10.1 Y200.0 Z0.28 F1500.0 E15 ;Draw the first line
G1 X10.4 Y200.0 Z0.28 F5000.0 ;Move to side a little
G1 X10.4 Y20 Z0.28 F1500.0 E30 ;Draw the second line
G92 E0 ;Reset Extruder
G1 Z2.0 F3000 ;Move Z Axis up

G92 E0
G92 E0
G1 F3900 E-8
;LAYER_COUNT:39
;LAYER:0
M107
;MESH:hardprint_halloween_ghost.stl
G0 F6000 X109.29 Y128.691 Z0.2
;TYPE:WALL-INNER
G1 F3900 E0
G1 F1200 X109.695 Y128.624 E0.01365
G1 X109.776 Y128.61 E0.01639
G1 X110.043 Y128.518 E0.02578
G1 X110.242 Y128.449 E0.03279
G1 X110.393 Y128.368 E0.03848
G1 X110.675 Y128.215 E0.04916
G1 X110.719 Y128.181 E0.05101
G1 X111.064 Y127.913 E0.06554
G1 X111.321 Y127.632 E0.0782
G1 X111.396 Y127.55 E0.0819
G1 X111.543 Y127.327 E0.09078
G1 X111.668 Y127.138 E0.09832
G1 X111.731 Y126.994 E0.10354
G1 X111.865 Y126.686 E0.11472
G1 X111.873 Y126.651 E0.11591
G1 X111.982 Y126.225 E0.13054
G1 X111.986 Y126.209 E0.13108
G1 X112.015 Y125.848 E0.14313
G1 X112.026 Y125.718 E0.14747
G1 X112.006 Y125.468 E0.15581
G1 X111.986 Y125.227 E0.16385
G1 X111.954 Y125.101 E0.16818
G1 X111.865 Y124.75 E0.18022
G1 X111.856 Y124.728 E0.18101
G1 X111.68 Y124.325 E0.19564
G1 X111.668 Y124.298 E0.19662
G1 X111.481 Y124.014 E0.20793
G1 X111.396 Y123.886 E0.21304
G1 X111.24 Y123.716 E0.22072
G1 X111.064 Y123.524 E0.22938
G1 X110.972 Y123.452 E0.23326
G1 X110.676 Y123.221 E0.24575
G1 X110.558 Y123.157 E0.25022
G1 X110.242 Y122.987 E0.26215
G1 X109.775 Y122.826 E0.27858
G1 X109.289 Y122.746 E0.29496
G1 X108.798 Y122.746 E0.31129
G1 X108.312 Y122.826 E0.32768
G1 X107.845 Y122.987 E0.34411
G1 X107.478 Y123.185 E0.35798
G1 X107.412 Y123.221 E0.36048
G1 X107.035 Y123.515 E0.37638
G1 X107.024 Y123.524 E0.37685
G1 X106.779 Y123.789 E0.38885
G1 X106.69 Y123.886 E0.39323
G1 X106.552 Y124.098 E0.40165
G1 X106.421 Y124.298 E0.4096
G1 X106.37 Y124.416 E0.41387
G1 X106.222 Y124.75 E0.42602
G1 X106.219 Y124.764 E0.4265
G1 X106.11 Y125.197 E0.44135
G1 X106.102 Y125.227 E0.44238
G1 X106.074 Y125.573 E0.45393
G1 X106.061 Y125.718 E0.45877
G1 X106.08 Y125.946 E0.46638
G1 X106.102 Y126.209 E0.47516
G1 X106.129 Y126.318 E0.47889
G1 X106.222 Y126.686 E0.49152
G1 X106.402 Y127.095 E0.50638
G1 X106.421 Y127.138 E0.50794
G1 X106.598 Y127.408 E0.51868
G1 X106.69 Y127.549 E0.52428
G1 X106.835 Y127.708 E0.53144
G1 X107.024 Y127.913 E0.54071
G1 X107.097 Y127.97 E0.54379
G1 X107.413 Y128.215 E0.55709
G1 X107.782 Y128.415 E0.57105
G1 X107.846 Y128.45 E0.57348
G1 X108.136 Y128.549 E0.58367
G1 X108.311 Y128.609 E0.58982
G1 X108.503 Y128.641 E0.5963
G1 X108.796 Y128.691 E0.60618
G1 X108.874 Y128.691 E0.60878
G1 X109.29 Y128.691 E0.62261
G0 F6000 X109.257 Y128.291
;TYPE:WALL-OUTER
G1 F1200 X109.677 Y128.221 E0.63678
G1 X110.081 Y128.082 E0.65099
G1 X110.456 Y127.879 E0.66517
G1 X110.792 Y127.618 E0.67932
G1 X111.08 Y127.303 E0.69352
G1 X111.315 Y126.947 E0.7077
G1 X111.485 Y126.556 E0.72188
G1 X111.59 Y126.143 E0.73606
G1 X111.625 Y125.718 E0.75024
G1 X111.59 Y125.293 E0.76442
G1 X111.485 Y124.88 E0.7786
G1 X111.315 Y124.489 E0.79278
G1 X111.08 Y124.133 E0.80697
G1 X110.792 Y123.819 E0.82114
G1 X110.456 Y123.557 E0.83531
G1 X110.081 Y123.354 E0.84949
G1 X109.677 Y123.215 E0.8637
G1 X109.256 Y123.146 E0.87789
G1 X108.831 Y123.146 E0.89203
G1 X108.41 Y123.215 E0.90622
G1 X108.007 Y123.354 E0.92039
G1 X107.632 Y123.557 E0.93458
G1 X107.296 Y123.819 E0.94875
G1 X107.007 Y124.133 E0.96294
G1 X106.774 Y124.489 E0.97709
G1 X106.602 Y124.88 E0.9913
G1 X106.498 Y125.293 E1.00547
G1 X106.462 Y125.718 E1.01965
G1 X106.498 Y126.143 E1.03384
G1 X106.602 Y126.556 E1.048
G1 X106.774 Y126.947 E1.06221
G1 X107.007 Y127.303 E1.07636
G1 X107.296 Y127.618 E1.09058
G1 X107.632 Y127.879 E1.10473
G1 X108.007 Y128.082 E1.11891
G1 X108.41 Y128.22 E1.13308
G1 X108.83 Y128.291 E1.14725
G1 X109.257 Y128.291 E1.16145
G0 F6000 X109.293 Y128.729
G0 X107.91 Y128.302
G0 X107.133 Y127.795
G0 X106.563 Y127.062
G0 X106.375 Y126.633
G0 X106.221 Y125.718
G0 X106.375 Y124.803
G0 X106.625 Y124.341
G0 X107.806 Y122.578
;TYPE:WALL-INNER
G1 F1200 X107.806 Y122.299 E1.17073
G1 X107.806 Y122.298 E1.17076
G1 X107.806 Y121.249 E1.20565
G1 X106.413 Y121.038 E1.25251
G1 X105.84 Y120.928 E1.27192
G1 X105.317 Y120.804 E1.2898
G1 X104.814 Y120.659 E1.30721
G1 X104.391 Y120.517 E1.32205
G1 X104.314 Y120.489 E1.32477
G1 X103.897 Y120.324 E1.33969
G1 X103.483 Y120.136 E1.35481
G1 X103.016 Y119.89 E1.37237
G1 X102.598 Y119.634 E1.38867
G1 X102.291 Y119.422 E1.40108
G1 X101.892 Y119.111 E1.41791
G1 X101.513 Y118.775 E1.43475
G1 X101.249 Y118.51 E1.44719
G1 X100.917 Y118.137 E1.4638
G1 X100.584 Y117.716 E1.48166
G1 X100.305 Y117.311 E1.49801
G1 X100.014 Y116.836 E1.51654
G1 X99.804 Y116.449 E1.53119
G1 X99.543 Y115.911 E1.55107
G1 X99.322 Y115.397 E1.56968
G1 X99.098 Y114.796 E1.59102
G1 X98.912 Y114.225 E1.61099
G1 X98.724 Y113.565 E1.63381
G1 X98.566 Y112.914 E1.6561
G1 X98.42 Y112.214 E1.67988
G1 X98.277 Y111.411 E1.70701
G1 X98.179 Y110.735 E1.72973
G1 X98.073 Y109.866 E1.75884
G1 X97.989 Y108.969 E1.78881
G1 X97.935 Y108.195 E1.81461
G1 X97.887 Y107.239 E1.84645
G1 X97.829 Y105.354 E1.90918
G1 X96.431 Y105.197 E1.95597
G1 X96.015 Y105.098 E1.97019
G1 X95.66 Y104.957 E1.98289
G1 X95.303 Y104.743 E1.99674
G1 X95.165 Y104.635 E2.00256
G1 X94.912 Y104.387 E2.01435
G1 X94.656 Y104.048 E2.02848
G1 X94.546 Y103.863 E2.03564
G1 X94.428 Y103.633 E2.04423
G1 X94.341 Y103.431 E2.05155
G1 X94.184 Y102.983 E2.06734
G1 X94.053 Y102.463 E2.08517
G1 X93.972 Y101.956 E2.10225
G1 X93.925 Y101.395 E2.12097
G1 X93.917 Y100.874 E2.1383
G1 X93.952 Y100.37 E2.15511
G1 X94.026 Y99.867 E2.17202
G1 X94.129 Y99.435 E2.18679
G1 X94.275 Y99.015 E2.20158
G1 X94.443 Y98.659 E2.21467
G1 X94.64 Y98.36 E2.22658
G1 X94.844 Y98.133 E2.23673
G1 X95.218 Y97.889 E2.25158
G1 X95.599 Y97.822 E2.26445
G1 X95.91 Y97.888 E2.27502
G1 X96.191 Y98.062 E2.28602
G1 X96.405 Y98.319 E2.29714
G1 X96.484 Y98.463 E2.3026
G1 X96.877 Y99.36 E2.33518
G1 X98.312 Y99.23 E2.3831
G1 X98.377 Y98.95 E2.39266
G1 X98.628 Y97.886 E2.42902
G1 X98.788 Y97.294 E2.44942
G1 X98.974 Y96.698 E2.47018
G1 X99.155 Y96.182 E2.48837
G1 X99.357 Y95.672 E2.50661
G1 X99.567 Y95.203 E2.52371
G1 X99.764 Y94.804 E2.53851
G1 X99.988 Y94.395 E2.55402
G1 X100.207 Y94.04 E2.56789
G1 X100.406 Y93.746 E2.5797
G1 X100.651 Y93.42 E2.59326
G1 X100.903 Y93.117 E2.60637
G1 X101.111 Y92.891 E2.61658
G1 X101.368 Y92.641 E2.62851
G1 X101.582 Y92.451 E2.63803
G1 X101.804 Y92.275 E2.64745
G1 X102.085 Y92.078 E2.65886
G1 X102.258 Y91.967 E2.6657
G1 X102.511 Y91.825 E2.67535
G1 X102.948 Y91.624 E2.69135
G1 X103.18 Y91.54 E2.69956
G1 X103.568 Y91.427 E2.713
G1 X103.974 Y91.352 E2.72673
G1 X104.31 Y91.324 E2.73794
G1 X104.59 Y91.324 E2.74726
G1 X104.816 Y91.362 E2.75488
G1 X105.001 Y91.579 E2.76436
G1 X105.095 Y91.807 E2.77257
G1 X105.171 Y92.106 E2.78283
G1 X105.209 Y92.441 E2.79404
G1 X105.216 Y92.659 E2.80129
G1 X105.207 Y93.145 E2.81746
G1 X105.385 Y93.8 E2.84004
G1 X105.84 Y94.362 E2.86409
G1 X106.371 Y94.665 E2.88442
G1 X107.033 Y94.785 E2.9068
G1 X107.69 Y94.639 E2.92918
G1 X107.935 Y94.503 E2.9385
G1 X108.362 Y94.239 E2.9552
G1 X108.688 Y94.047 E2.96778
G1 X109.071 Y93.835 E2.98234
G1 X109.477 Y93.629 E2.99749
G1 X109.768 Y93.49 E3.00821
G1 X110.157 Y93.323 E3.02229
G1 X110.432 Y93.214 E3.03213
G1 X110.808 Y93.08 E3.04541
G1 X111.156 Y92.974 E3.05751
G1 X111.408 Y92.905 E3.0662
G1 X111.734 Y92.834 E3.07729
G1 X112.046 Y92.778 E3.08784
G1 X112.352 Y92.738 E3.0981
G1 X112.64 Y92.716 E3.10771
G1 X112.926 Y92.707 E3.11723
G1 X113.275 Y92.749 E3.12892
G1 X113.508 Y92.813 E3.13695
G1 X113.897 Y92.957 E3.15075
G1 X114.203 Y93.11 E3.16213
G1 X114.339 Y93.198 E3.16752
G1 X114.543 Y93.363 E3.17624
G1 X114.716 Y93.56 E3.18496
G1 X114.888 Y93.875 E3.1969
G1 X114.953 Y94.072 E3.2038
G1 X115.069 Y94.507 E3.21877
G1 X115.529 Y95.09 E3.24347
G1 X116.215 Y95.377 E3.26821
G1 X116.878 Y95.334 E3.2903
G1 X117.395 Y95.084 E3.3094
G1 X117.629 Y94.964 E3.31815
G1 X117.991 Y94.824 E3.33106
G1 X118.354 Y94.733 E3.34351
G1 X118.717 Y94.689 E3.35567
G1 X119.081 Y94.692 E3.36778
G1 X119.439 Y94.741 E3.37979
G1 X119.823 Y94.84 E3.39298
G1 X120.235 Y94.998 E3.40766
G1 X120.549 Y95.147 E3.41922
G1 X120.826 Y95.298 E3.42971
G1 X121.063 Y95.449 E3.43906
G1 X121.356 Y95.685 E3.45157
G1 X121.549 Y95.928 E3.46189
G1 X121.651 Y96.139 E3.46969
G1 X121.973 Y96.581 E3.48788
G1 X122.614 Y96.922 E3.51203
G1 X123.352 Y96.918 E3.53657
G1 X123.817 Y96.7 E3.55365
G1 X124.145 Y96.466 E3.56706
G1 X124.358 Y96.334 E3.57539
G1 X124.577 Y96.218 E3.58363
G1 X124.906 Y96.09 E3.59537
G1 X125.173 Y96.044 E3.60439
G1 X125.405 Y96.082 E3.6122
G1 X125.651 Y96.236 E3.62186
G1 X125.859 Y96.471 E3.6323
G1 X125.961 Y96.624 E3.63841
G1 X126.058 Y96.875 E3.64736
G1 X126.076 Y97.202 E3.65825
G1 X126.049 Y97.399 E3.66487
G1 X125.986 Y97.655 E3.67364
G1 X125.904 Y97.896 E3.6821
G1 X125.757 Y98.243 E3.69464
G1 X125.623 Y98.518 E3.70481
G1 X125.433 Y98.867 E3.71803
G1 X125.218 Y99.231 E3.73209
G1 X124.978 Y99.607 E3.74693
G1 X124.688 Y100.038 E3.7642
G1 X124.375 Y100.486 E3.78238
G1 X123.856 Y101.205 E3.81187
G1 X123.113 Y102.213 E3.85352
G1 X122.54 Y102.997 E3.88582
G1 X121.918 Y103.882 E3.9218
G1 X121.332 Y104.774 E3.9573
G1 X121.269 Y104.873 E3.9612
G1 X120.968 Y105.372 E3.98058
G1 X120.728 Y105.799 E3.99687
G1 X120.464 Y106.307 E4.01592
G1 X120.266 Y106.73 E4.03145
G1 X120.22 Y106.834 E4.03523
G1 X120.042 Y107.265 E4.05074
G1 X119.859 Y107.791 E4.06926
G1 X119.721 Y108.284 E4.08629
G1 X119.623 Y108.768 E4.10272
G1 X119.488 Y109.639 E4.13203
G1 X119.379 Y110.41 E4.15793
G1 X119.233 Y111.357 E4.1898
G1 X119.054 Y112.369 E4.22398
G1 X118.844 Y113.355 E4.25751
G1 X118.592 Y114.315 E4.29052
G1 X118.444 Y114.793 E4.30717
G1 X118.27 Y115.305 E4.32515
G1 X118.083 Y115.785 E4.34229
G1 X117.876 Y116.262 E4.35958
G1 X117.646 Y116.732 E4.37698
G1 X117.431 Y117.125 E4.39188
G1 X117.166 Y117.56 E4.40883
G1 X116.877 Y117.975 E4.42565
G1 X116.533 Y118.41 E4.44409
G1 X116.253 Y118.723 E4.45806
G1 X116.206 Y118.773 E4.46034
G1 X115.876 Y119.094 E4.47565
G1 X115.483 Y119.433 E4.49292
G1 X115.049 Y119.753 E4.51085
G1 X114.579 Y120.049 E4.52932
G1 X114.093 Y120.31 E4.54767
G1 X113.568 Y120.542 E4.56676
G1 X112.987 Y120.752 E4.58731
G1 X112.387 Y120.926 E4.60809
G1 X111.725 Y121.07 E4.63062
G1 X110.182 Y121.307 E4.68254
G1 X110.182 Y122.384 E4.71836
G1 X110.182 Y122.437 E4.72013
G1 X110.182 Y122.543 E4.72365
G1 X109.873 Y122.437 E4.7307
G1 X109.821 Y122.429 E4.7323
G1 X109.322 Y122.346 E4.74912
G1 X108.765 Y122.346 E4.76765
G1 X108.214 Y122.437 E4.78622
G1 X108.071 Y122.487 E4.79126
G1 X108.07 Y122.488 E4.79131
G1 X107.806 Y122.578 E4.79681
G0 F6000 X106.563 Y124.374
G0 X106.375 Y124.803
G0 X106.221 Y125.718
G0 X106.375 Y126.633
G0 X106.563 Y127.062
G0 X107.076 Y127.721
G0 X108.874 Y129.081
G1 F1200 X108.751 Y129.066 E4.8008
G1 X108.438 Y129.028 E4.81091
G1 X108.221 Y128.974 E4.81808
G1 X108.009 Y128.921 E4.8251
G1 X107.707 Y128.801 E4.83554
G1 X107.597 Y128.757 E4.83934
G1 X107.226 Y128.55 E4.853
G1 X107.209 Y128.54 E4.85364
G1 X107.185 Y128.522 E4.85464
G1 X106.858 Y128.279 E4.86775
G1 X106.761 Y128.185 E4.8721
G1 X106.545 Y127.975 E4.88181
G1 X106.394 Y127.783 E4.88967
G1 X106.269 Y127.624 E4.89619
G1 X106.096 Y127.333 E4.90709
G1 X106.047 Y127.252 E4.91014
G1 X105.87 Y126.837 E4.92464
G1 X105.857 Y126.79 E4.92627
G1 X105.75 Y126.414 E4.9388
G1 X105.729 Y126.263 E4.9437
G1 X105.688 Y125.979 E4.95291
G1 X105.685 Y125.724 E4.9611
G1 X105.682 Y125.541 E4.96699
G1 X105.725 Y125.182 E4.97863
G1 X105.735 Y125.103 E4.9812
G1 X105.846 Y124.671 E4.99552
G1 X105.87 Y124.611 E4.99761
G1 X106.01 Y124.258 E5.00982
G1 X106.092 Y124.113 E5.01519
G1 X106.222 Y123.883 E5.02368
G1 X106.388 Y123.661 E5.03258
G1 X106.491 Y123.524 E5.03808
G1 X106.751 Y123.258 E5.05006
G1 X106.797 Y123.211 E5.05219
G1 X107.173 Y122.917 E5.06755
G1 X107.232 Y122.871 E5.07002
G1 X107.406 Y122.734 E5.07738
G1 X107.406 Y121.593 E5.11533
G1 X106.338 Y121.431 E5.15126
G1 X105.765 Y121.321 E5.17067
G1 X105.216 Y121.191 E5.18943
G1 X104.695 Y121.041 E5.20746
G1 X104.254 Y120.893 E5.22294
G1 X104.177 Y120.865 E5.22566
G1 X103.75 Y120.696 E5.24093
G1 X103.296 Y120.49 E5.25752
G1 X102.82 Y120.239 E5.27541
G1 X102.458 Y120.019 E5.2895
G1 X102.384 Y119.972 E5.29242
G1 X102.045 Y119.738 E5.30612
G1 X101.639 Y119.422 E5.32323
G1 X101.247 Y119.074 E5.34067
G1 X101.231 Y119.057 E5.34144
G1 X100.955 Y118.781 E5.35443
G1 X100.894 Y118.715 E5.35741
G1 X100.612 Y118.396 E5.37158
G1 X100.261 Y117.952 E5.3904
G1 X100.009 Y117.589 E5.4051
G1 X99.97 Y117.529 E5.40748
G1 X99.673 Y117.045 E5.42637
G1 X99.664 Y117.027 E5.42703
G1 X99.444 Y116.624 E5.44231
G1 X99.183 Y116.086 E5.46219
G1 X98.947 Y115.537 E5.48207
G1 X98.723 Y114.936 E5.5034
G1 X98.527 Y114.335 E5.52443
G1 X98.339 Y113.675 E5.54725
G1 X98.177 Y113.009 E5.57005
G1 X98.028 Y112.296 E5.59428
G1 X97.883 Y111.481 E5.62181
G1 X97.783 Y110.792 E5.64497
G1 X97.676 Y109.914 E5.67438
G1 X97.591 Y109.006 E5.70472
G1 X97.536 Y108.223 E5.73082
G1 X97.487 Y107.251 E5.76319
G1 X97.44 Y105.713 E5.81437
G1 X96.365 Y105.593 E5.85035
G1 X95.894 Y105.48 E5.86646
G1 X95.482 Y105.317 E5.88119
G1 X95.074 Y105.072 E5.89702
G1 X94.907 Y104.942 E5.90406
G1 X94.633 Y104.672 E5.91686
G1 X94.61 Y104.65 E5.91791
G1 X94.446 Y104.446 E5.92662
G1 X94.323 Y104.269 E5.93379
G1 X94.314 Y104.253 E5.9344
G1 X94.191 Y104.048 E5.94235
G1 X94.064 Y103.801 E5.95159
G1 X93.973 Y103.589 E5.95926
G1 X93.799 Y103.093 E5.97675
G1 X93.661 Y102.543 E5.99561
G1 X93.574 Y101.998 E6.01396
G1 X93.525 Y101.421 E6.03322
G1 X93.517 Y100.865 E6.05172
G1 X93.554 Y100.321 E6.06985
G1 X93.632 Y99.796 E6.0875
G1 X93.745 Y99.322 E6.10371
G1 X93.904 Y98.865 E6.11981
G1 X94.093 Y98.463 E6.13458
G1 X94.323 Y98.114 E6.14848
G1 X94.569 Y97.84 E6.16073
G1 X94.803 Y97.655 E6.17065
G1 X95.064 Y97.517 E6.18047
G1 X95.323 Y97.442 E6.18944
G1 X95.604 Y97.42 E6.19881
G1 X95.836 Y97.447 E6.20658
G1 X96.077 Y97.52 E6.21496
G1 X96.456 Y97.756 E6.22981
G1 X96.497 Y97.806 E6.23196
G1 X96.738 Y98.094 E6.24445
G1 X96.845 Y98.29 E6.25187
G1 X97.128 Y98.936 E6.27533
G1 X97.989 Y98.858 E6.30409
G1 X98.242 Y97.782 E6.34085
G1 X98.406 Y97.175 E6.36176
G1 X98.592 Y96.579 E6.38253
G1 X98.783 Y96.035 E6.40171
G1 X98.992 Y95.508 E6.42056
G1 X99.208 Y95.026 E6.43813
G1 X99.405 Y94.627 E6.45293
G1 X99.637 Y94.203 E6.469
G1 X99.876 Y93.816 E6.48413
G1 X100.086 Y93.506 E6.49659
G1 X100.343 Y93.164 E6.51082
G1 X100.595 Y92.861 E6.52392
G1 X100.832 Y92.604 E6.53555
G1 X101.089 Y92.354 E6.54748
G1 X101.334 Y92.137 E6.55836
G1 X101.574 Y91.947 E6.56854
G1 X101.855 Y91.75 E6.57996
G1 X102.052 Y91.624 E6.58773
G1 X102.315 Y91.476 E6.59777
G1 X102.565 Y91.352 E6.60705
G1 X102.8 Y91.252 E6.61555
G1 X103.053 Y91.16 E6.6245
G1 X103.471 Y91.038 E6.63898
G1 X103.902 Y90.96 E6.65355
G1 X103.93 Y90.954 E6.6545
G1 X104.289 Y90.924 E6.66649
G1 X104.626 Y90.924 E6.6777
G1 X104.993 Y90.985 E6.69007
G1 X105.237 Y91.2 E6.70089
G1 X105.359 Y91.397 E6.70859
G1 X105.476 Y91.68 E6.71878
G1 X105.564 Y92.029 E6.73075
G1 X105.567 Y92.06 E6.73179
G1 X105.605 Y92.395 E6.743
G1 X105.609 Y92.424 E6.74397
G1 X105.616 Y92.646 E6.75136
G1 X105.608 Y93.095 E6.7663
G1 X105.749 Y93.614 E6.78418
G1 X106.104 Y94.052 E6.80294
